sliced-svg/output/0145-mulapisu.svg

<?xml version="1.0" encoding="UTF-8"?><svg xmlns="http://www.w3.org/2000/svg" xmlns:xlink="http://www.w3.org/1999/xlink" width="1000px" height="1000px" version="1.1"><g id="surface1"><path style="fill:none;stroke-width:1;stroke-linecap:round;stroke-linejoin:round;stroke:rgb(0%,0%,0%);stroke-opacity:1;stroke-miterlimit:4" d="M 4.999954 75 L 9.999954 65 L 14.999954 75 L 4.999954 75 " transform="matrix(-50,0.000000000000006123,-0.000000000000006123,-50,999.997711,4000)"/><path style="stroke:none;fill-rule:nonzero;fill:rgb(0%,0%,0%);fill-opacity:1" d="M449.996094 512.5C449.996094 484.886719 472.382812 462.5 499.996094 462.5 527.613281 462.5 549.996094 484.886719 549.996094 512.5 549.996094 540.113281 527.613281 562.5 499.996094 562.5 472.382812 562.5 449.996094 540.113281 449.996094 512.5zM374.996094 375C374.996094 347.386719 397.382812 325 424.996094 325 452.613281 325 474.996094 347.386719 474.996094 375 474.996094 402.613281 452.613281 425 424.996094 425 397.382812 425 374.996094 402.613281 374.996094 375zM524.996094 375C524.996094 347.386719 547.382812 325 574.996094 325 602.613281 325 624.996094 347.386719 624.996094 375 624.996094 402.613281 602.613281 425 574.996094 425 547.382812 425 524.996094 402.613281 524.996094 375zM524.996094 375"/></g></svg>

<?xml version="1.0" encoding="UTF-8" standalone="no"?>
<svg
   xmlns:dc="http://purl.org/dc/elements/1.1/"
   xmlns:cc="http://creativecommons.org/ns#"
   xmlns:rdf="http://www.w3.org/1999/02/22-rdf-syntax-ns#"
   xmlns:svg="http://www.w3.org/2000/svg"
   xmlns="http://www.w3.org/2000/svg"
   xmlns:sodipodi="http://sodipodi.sourceforge.net/DTD/sodipodi-0.dtd"
   xmlns:inkscape="http://www.inkscape.org/namespaces/inkscape"
   width="1000px"
   height="1000px"
   version="1.1"
   id="svg7"
   sodipodi:docname="0145-mulapisu.svg"
   inkscape:version="1.0.2-2 (e86c870879, 2021-01-15)">
  <metadata
     id="metadata13">
    <rdf:RDF>
      <cc:Work
         rdf:about="">
        <dc:format>image/svg+xml</dc:format>
        <dc:type
           rdf:resource="http://purl.org/dc/dcmitype/StillImage" />
      </cc:Work>
    </rdf:RDF>
  </metadata>
  <defs
     id="defs11" />
  <sodipodi:namedview
     pagecolor="#ffffff"
     bordercolor="#666666"
     borderopacity="1"
     objecttolerance="10"
     gridtolerance="10"
     guidetolerance="10"
     inkscape:pageopacity="0"
     inkscape:pageshadow="2"
     inkscape:window-width="893"
     inkscape:window-height="480"
     id="namedview9"
     showgrid="false"
     inkscape:zoom="0.24711111"
     inkscape:cx="500"
     inkscape:cy="500"
     inkscape:window-x="0"
     inkscape:window-y="0"
     inkscape:window-maximized="0"
     inkscape:current-layer="svg7" />
  <g
     id="g866">
    <path
       style="fill:none;stroke:#000000;stroke-width:50;stroke-linecap:round;stroke-linejoin:round;stroke-miterlimit:4;stroke-opacity:1"
       d="m 749.99923,250.00154 -250,500 -250,-500 h 500"
       id="path2" />
    <path
       style="fill:#000000;fill-opacity:1;fill-rule:nonzero;stroke:none"
       d="m 449.99531,512.50154 c 0,-27.61328 22.38672,-50 50,-50 27.61719,0 50,22.38672 50,50 0,27.61328 -22.38281,50 -50,50 -27.61328,0 -50,-22.38672 -50,-50 z m -75,-137.5 c 0,-27.61328 22.38672,-50 50,-50 27.61719,0 50,22.38672 50,50 0,27.61328 -22.38281,50 -50,50 -27.61328,0 -50,-22.38672 -50,-50 z m 150,0 c 0,-27.61328 22.38672,-50 50,-50 27.61719,0 50,22.38672 50,50 0,27.61328 -22.38281,50 -50,50 -27.61328,0 -50,-22.38672 -50,-50 z m 0,0"
       id="path4" />
  </g>
</svg>
